X:354
T:Past The Point Of Rescue
C:Kate MacKenzie - Age of Innocence
N:mandolin: John Reischman - Transcribed by Philippe Colleu
R:bluegrass
L:1/8
Q:1/4=210
M:4/4
K:C
"105 bpm""D"A,2 [A2D2A,2] A,2 [A2D2A,2] | A,2 [A2D2A,2] [ADA,][DA,] [DA,][DA,] | 
A,2 [A2D2A,2] [ADA,][DA,] A,A, | [ADA,]D EG AB cd | "Am"d/z/e e3e ab | c'2 b2 a/b/a e2 | 
"G"[ge][ge] [ge][ge] ze [c'g]c' | c'[bg] zg [c'2g2] [b2g2] | "F"fg af g2 f/g/f | 
"C"ef ed cA cA | "G"Bc dc BA GB | "Am"AG AB cB AG | AG ED CE DC | A,8 | 


